X:1
T:Title
%%score 1 { 2 | 3 }
L:1/8
Q:1/4=104
M:4/4
K:Bb
V:1 treble nm="Grand Piano, Soprano"
V:2 bass nm="Choir Pad, Hollister Leonard Daugherty"
V:3 bass 
V:1
 [B,D]>[CE] [DF]2 [FB]2 [FB]2 | [FB]>[Fc] [FB]2 [FA]2 [FA]2 | [EA]>[DB] [Ec]2 [Ec]2 [DB]2 | %3
w: By~Leonard~Daugherty,~1901 * * * *|||
 [Fc]2 [Fd]4 [Fd]2 | [B,D]>[CE] [DF]2 [DB]2 [DB]2 | [DB]>[Ec] [DB]2 [EA]2 [EA]2 | %6
w: |||
 [EA]>[DB] [Fc]2 [Fd]2 [Fe]2 | [FA]2 [Ec]4 [DB]2 | [FB]>[_AB] [Ge]2 [Ge]2 [Ge]2 | %9
w: |||
 [EB]>[Ge] [Fd]2 [Fd]2 [Fd]2 | [DB]>[Fd] [Fc]2 [Fc]2 [Fc]2 | [Fe]2 [Fe]4 [Fd]2 | %12
w: |||
 [B,D]>[CE] [DF]2 [FB]2 [FB]2 | [FB]>[Fc] [FB]2 [FA]2 [FA]2 | [EA]>[DB] [Fc]2 [Fd]2 [Fe]2 | %15
w: |||
 [FA]2 [Ec]4 [DB]2- | [DB]6 z2 |] %17
w: ||
V:2
 F,>F, B,2 D2 D2 | D>E D2 C2 C2 | C>[K:bass]B, A,2 A,2 B,2 | A,2 B,4 B,2 | F,>F, B,2 B,2 B,2 | %5
 B,>B, B,2[K:treble] C2 C2 | C>B, A,2 B,2 C2 | C2[K:bass] A,4 B,2 | D>B, B,2 B,2 B,2 | %9
 G,>B, B,2 B,2 B,2 | B,>B, A,2 A,2 A,2 | C2 C4 B,2 | F,>F, B,2[K:treble] D2 D2 | D>E D2 C2 C2 | %14
 C>[K:bass]B, A,2 B,2 C2 | C2 A,4 B,2- | B,6 z2 |] %17
V:3
 B,,>B,, B,,2 B,,2 B,,2 | B,,>B,, F,2 F,2 F,2 | F,>F, F,2 F,2 G,2 | F,2 B,,4 B,,2 | %4
 B,,>B,, B,,2 B,,2 B,,2 | B,,>B,, F,2 F,2 F,2 | F,>F, F,2 F,2 F,2 | F,2 F,4 B,,2 | %8
 B,2 E,2 E,2 E,2 | E,>E, B,,2 B,,2 B,,2 | B,,>B,, F,2 F,2 F,2 | F,2 B,,4 B,,2 | %12
 B,,>B,, B,,2 B,,2 B,,2 | B,,>B,, F,2 F,2 F,2 | F,>F, F,2 F,2 F,2 | F,2 F,4 B,,2- | B,,6 z2 |] %17

